X: 1218
T: Along the Road to Gundagai
C:Jack O'Hagan (1898-1987)
B: australian traditional tunes wiki
M:2/4
L:1/16
R: Foxtrot
Q: 1/4=100
K:G
V:1 
d2c2|"G"B4B2G2|"B7"A4A2F2|"C"G4G2E2|"G"D2E2 F2G2|"A7"B2A6|"D7"c2B4"G"G2-|G8-|"G7"G4A2B2|
"C"c4c2B2|c2d4c2|"G"B4B2A2|"E7"B2c4B2|"A7"A4B4|F2E4"D7"A2-|A8-|A2z2B2c2|
"G"d4d2c2|"G7"d2e4B2|"C"d2c2 c2B2|c4G2A2|"E7"B4B2A2|B2c4G2|"A7"B2A2 A2G2|"D7"A4d2c2|
"G"B4B2G2|"B7"A4A2F2|"C"G3A G2E2|"G"D2E2 F2G2|"A7"B2A6|"D7"c2B6|"G"G4- G4-|"(D7)"G2z2||
% abcbook-tune_id 6342d53add3631c71d87afb5


% abcbook-boost 0
% abcbook-tablature 
% abcbook-transpose 
% abcbook-lastupdated 1665324354689
% abcbook-soundfonts 
% abcbook-repeats 1
% NFF Book 2017

